X:1
T:Jolly Tinker
M:6/8
L:1/4
K:A
 E/2| A, A,/2 A, A,/2| A, A,/2- A, C/2| E E/2 E C/2| D3/2- D E/2| A A/2 G E/2|\
 F E/2 C A,/2| B, B,/2 B, C/2| D3/2 E D/2| C A,/2 A,3/2-| A,3/2 E D/2|\
 C B,/2 B,3/2-| B,3/2 A B/2| c A/2 B G/2| A/2 E D B,/2| C A,/2 A,3/2|\
